X: 231
T: The Fife Hunt
%R: reel
B: "Twenty Four Country Dances for the Year 1793", Preston & Son, eds. p.96
F: http://www.vwml.org/browse/browse-collections-dance-tune-books/browse-prestons1793# 2014-8-7
Z: 2014 John Chambers <jc:trillian.mit.edu>
M: C
L: 1/8
K: C
(f |\
e)cTc2 GETE2 | Dd2^c d2-df |\
ecTc2 GETE2 | Cc2B c3 |]\
f |\
ecgc acgc | Dd2^c d3f |
ecgc acgc | Gc2B c3f |\
ecgc acgc | Dd2^c d3f |\
egcg fadf | Gc2B c3 |]
% = = = = = = = = = = = = = = = = = = = = = = = = =
%%begintext align
%% Cast off 2 Cu: up again. Lead down the
%% middle up again & cast off. turn corners
%% & lead outsides.
%%endtext
% = = = = = = = = = = = = = = = = = = = = = = = = =

%%sep 1 1 500
%%sep 1 1 500
